projects/packages/jetpack-mu-wpcom/src/assets/images/post-published.svg

<svg fill="none" height="85" viewBox="0 0 158 85" width="158" xmlns="http://www.w3.org/2000/svg" xmlns:xlink="http://www.w3.org/1999/xlink"><clipPath id="a"><path d="m0 0h145v40h-145z" transform="matrix(.99026807 -.1391731 .1391731 .99026807 8.26501 20.1801)"/></clipPath><g clip-path="url(#a)"><path d="m63.6725 29.3457 10.4459 1.2286 3.3591 19.6055 20.7774-12.1472 3.3611.3326s30.027-29.17233 28.742-28.78027z" fill="#dcdcde"/><g stroke="#02395c" stroke-linecap="round" stroke-linejoin="round" stroke-miterlimit="10" stroke-width="1.5"><path d="m75.3439 34.0189 37.6001 6.7241 38.464-40.146192-99.2432 29.271592 16.6434 2.9751"/><path d="m98.4081 38.1433-20.7774 12.1472-2.2868-16.2716"/><path d="m68.8086 32.8435 61.0674-22.87002-54.5318 24.04542"/><path d="m77.6309 50.2905-8.8224-17.447"/></g></g><path d="m8.60233 83.8353c-.32463.0013-.68644-.1502-1.01027-.423s-.58478-.646-.72864-1.042c-.19107-.591-.21443-1.1652-.06636-1.631.15767-.5705.36227-1.1075.61189-1.606.26069-.605.64224-1.4806.98084-2.0194.40918-.6519 2.90051-4.1823 3.30621-4.6346.6022-.6717 2.346-2.1851 2.6872-2.4488.2452-.1745.4905-.3489.7598-.5406-1.2026-1.4269-1.1881-2.7084-1.0466-3.6776.1274-.871.6267-1.4277 1.0608-2.0722.7782-1.1337 1.6587-2.1612 2.6342-3.0739 2.9714-2.9028 6.5552-4.9447 9.8629-7.3944.7089-.5295 1.4732-.9852 2.2238-1.4562 1.758-1.1053 3.5202-2.1995 5.2865-3.2827.5124-.3141 4.8973-2.5987 5.4224-2.8045.6433-.2521 3.2977-1.3349 3.9534-1.5539.8414-.2922 3.4348-1.0715 3.8642-1.1798s.9186-.1837 1.3709-.2873c.3752-.0823 1.9997-.3946 2.4319-.4714.289-.0461.5679-.1103.8569-.1564.774-.1312 1.564-.24 2.3502-.3462.085-.0143.286-.0189.4756-.0237.151-.008.3195.0446.4806.1499s.3062.2577.4138.4347c.458.7735-.3987 1.1228-.5112 1.1693-.3731.0999-.7631.1642-1.1669.1925-.2552.0346-.5102.0105-.746.0566-.8943.1746-1.7802.3727-2.6837.554-.6811.1321-6.0828 1.6758-6.6326 1.8823s-6.0112 2.5983-6.872 3.0009c-.0706.0502-.1532.0796-.2258.127-2.3596 1.4816-4.7769 2.8782-7.0888 4.4307-3.5352 2.3724-7.0365 4.8017-10.5038 7.288-3.0561 2.6735-4.4568 4.9287-4.7372 5.7618-.1884.3605-.0102 1.7358.5357 1.6496l.4774-.3397c1.7333-1.2331 3.4069-2.558 5.2295-3.6617.9785-.5912 2.2086-.8286 3.7182-.0438 1.0007.5216 1.6636 1.4849 2.1047 2.455.5079 1.1071.3331 2.0413-.3487 2.5893-1.9493 1.5588-3.0573 1.7555-3.7028 1.8748-.7011.1582-1.4362.2405-2.1977.246-.8701-.03-1.7619-.136-2.6682-.317-.5306-.1008-1.0972-.3859-1.6429-.5473-.1712-.0322-.3256.001-.4393.0944-.6272.4713-1.2583.9371-1.8518 1.4559-.4401.3844-.8446.8148-1.251 1.2424-.3201.3368-.8343.904-1.1406 1.2562-.3062.3521-.6202.7014-.8997 1.0597-.4345.5692-.8689 1.1384-1.2645 1.7387-.44066.6785-.87536 1.3654-1.23413 2.1157-.2924.6718-.54541 1.3756-.75801 2.1085-.01563.0489-.02039.1051-.01399.1652.01518.2469.11939.5149.29011.746.13142.1487.23397.3238.29503.504.06108.1802.07801.3575.04873.5101-.0231.0626-.06252.1113-.11484.1419s-.11595.0423-.18537.034zm9.74547-14.4855c.2428.0797.4842.1446.7232.1945.7758.1111 3.4688.1168 3.9898-.0357.7247-.2016 1.4009-.4973 2.0191-.8826.3247-.1785.6259-.3928.901-.641.1769-.1867.2501-.4794.2037-.8152-.0463-.3359-.2085-.6879-.4515-.9805-.297-.3467-.571-.4329-1.0924-.4815-.6848-.0384-1.3111.1009-1.8361.4083-1.428.9111-4.3074 3.0897-4.4469 3.2476z" fill="#02395c"/></svg>

<svg width="158" height="85" viewBox="0 0 158 85" fill="none" xmlns="http://www.w3.org/2000/svg">
<g clip-path="url(#clip0_3017:1607)">
<path d="M63.6725 29.3457L74.1184 30.5743L77.4775 50.1798L98.2549 38.0326L101.616 38.3652C101.616 38.3652 131.643 9.19287 130.358 9.58493L63.6725 29.3457Z" fill="#DCDCDE"/>
<path d="M75.3439 34.0189L112.944 40.743L151.408 0.596808L52.1648 29.8684L68.8082 32.8435" stroke="#02395C" stroke-width="1.5" stroke-miterlimit="10" stroke-linecap="round" stroke-linejoin="round"/>
<path d="M98.4081 38.1433L77.6307 50.2905L75.3439 34.0189" stroke="#02395C" stroke-width="1.5" stroke-miterlimit="10" stroke-linecap="round" stroke-linejoin="round"/>
<path d="M68.8086 32.8435L129.876 9.97348L75.3442 34.0189" stroke="#02395C" stroke-width="1.5" stroke-miterlimit="10" stroke-linecap="round" stroke-linejoin="round"/>
<path d="M77.6309 50.2905L68.8085 32.8435" stroke="#02395C" stroke-width="1.5" stroke-miterlimit="10" stroke-linecap="round" stroke-linejoin="round"/>
</g>
<path d="M8.60233 83.8353C8.2777 83.8366 7.91589 83.6851 7.59206 83.4123C7.26823 83.1395 7.00728 82.7663 6.86342 82.3703C6.67235 81.7793 6.64899 81.2051 6.79706 80.7393C6.95473 80.1688 7.15933 79.6318 7.40895 79.1333C7.66964 78.5283 8.05119 77.6527 8.38979 77.1139C8.79897 76.462 11.2903 72.9316 11.696 72.4793C12.2982 71.8076 14.042 70.2942 14.3832 70.0305C14.6284 69.856 14.8737 69.6816 15.143 69.4899C13.9404 68.063 13.9549 66.7815 14.0964 65.8123C14.2238 64.9413 14.7231 64.3846 15.1572 63.7401C15.9354 62.6064 16.8159 61.5789 17.7914 60.6662C20.7628 57.7634 24.3466 55.7215 27.6543 53.2718C28.3632 52.7423 29.1275 52.2866 29.8781 51.8156C31.6361 50.7103 33.3983 49.6161 35.1646 48.5329C35.677 48.2188 40.0619 45.9342 40.587 45.7284C41.2303 45.4763 43.8847 44.3935 44.5404 44.1745C45.3818 43.8823 47.9752 43.103 48.4046 42.9947C48.834 42.8864 49.3232 42.811 49.7755 42.7074C50.1507 42.6251 51.7752 42.3128 52.2074 42.236C52.4964 42.1899 52.7753 42.1257 53.0643 42.0796C53.8383 41.9484 54.6283 41.8396 55.4145 41.7334C55.4995 41.7191 55.7005 41.7145 55.8901 41.7097C56.0411 41.7017 56.2096 41.7543 56.3707 41.8596C56.5318 41.9649 56.6769 42.1173 56.7845 42.2943C57.2425 43.0678 56.3858 43.4171 56.2733 43.4636C55.9002 43.5635 55.5102 43.6278 55.1064 43.6561C54.8512 43.6907 54.5962 43.6666 54.3604 43.7127C53.4661 43.8873 52.5802 44.0854 51.6767 44.2667C50.9956 44.3988 45.5939 45.9425 45.0441 46.149C44.4943 46.3555 39.0329 48.7473 38.1721 49.1499C38.1015 49.2001 38.0189 49.2295 37.9463 49.2769C35.5867 50.7585 33.1694 52.1551 30.8575 53.7076C27.3223 56.08 23.821 58.5093 20.3537 60.9956C17.2976 63.6691 15.8969 65.9243 15.6165 66.7574C15.4281 67.1179 15.6063 68.4932 16.1522 68.407L16.6296 68.0673C18.3629 66.8342 20.0365 65.5093 21.8591 64.4056C22.8376 63.8144 24.0677 63.577 25.5773 64.3618C26.578 64.8834 27.2409 65.8467 27.682 66.8168C28.1899 67.9239 28.0151 68.8581 27.3333 69.4061C25.384 70.9649 24.276 71.1616 23.6305 71.2809C22.9294 71.4391 22.1943 71.5214 21.4328 71.5269C20.5627 71.4969 19.6709 71.3909 18.7646 71.2099C18.234 71.1091 17.6674 70.824 17.1217 70.6626C16.9505 70.6304 16.7961 70.6636 16.6824 70.757C16.0552 71.2283 15.4241 71.6941 14.8306 72.2129C14.3905 72.5973 13.986 73.0277 13.5796 73.4553C13.2595 73.7921 12.7453 74.3593 12.439 74.7115C12.1328 75.0636 11.8188 75.4129 11.5393 75.7712C11.1048 76.3404 10.6704 76.9096 10.2748 77.5099C9.83414 78.1884 9.39944 78.8753 9.04067 79.6256C8.74827 80.2974 8.49526 81.0012 8.28266 81.7341C8.26703 81.783 8.26227 81.8392 8.26867 81.8993C8.28385 82.1462 8.38806 82.4142 8.55878 82.6453C8.6902 82.794 8.79275 82.9691 8.85381 83.1493C8.91489 83.3295 8.93182 83.5068 8.90254 83.6594C8.87944 83.722 8.84002 83.7707 8.7877 83.8013C8.73538 83.8319 8.67175 83.8436 8.60233 83.8353ZM18.3478 69.3498C18.5906 69.4295 18.832 69.4944 19.071 69.5443C19.8468 69.6554 22.5398 69.6611 23.0608 69.5086C23.7855 69.307 24.4617 69.0113 25.0799 68.626C25.4046 68.4475 25.7058 68.2332 25.9809 67.985C26.1578 67.7983 26.231 67.5056 26.1846 67.1698C26.1383 66.8339 25.9761 66.4819 25.7331 66.1893C25.4361 65.8426 25.1621 65.7564 24.6407 65.7078C23.9559 65.6694 23.3296 65.8087 22.8046 66.1161C21.3766 67.0272 18.4972 69.2058 18.3577 69.3637L18.3478 69.3498Z" fill="#02395C"/>
<defs>
<clipPath id="clip0_3017:1607">
<rect width="145" height="40" fill="white" transform="translate(8.26501 20.1801) rotate(-8)"/>
</clipPath>
</defs>
</svg>
